X: 373
T: Lord Kelly's Reel
R: reel
M: C
L: 1/8
Z: 2012 John Chambers <jc:trillian.mit.edu>
B: J. Anderson "Budget of Strathspeys, Reels and Country Dances" (Early 1800s) p.37 #3
F: http://imslp.org/wiki/Anderson%27s_Budget_of_Strathspeys,_Reels_and_Country_Dances_(Various)
K: Am
c | EAcA eAcA | DGBg G>A c/B/A/^G/ | EAAc Bdce  | d>g (e/d/c/B/) cAA :|
(a/b/) | c'aea Aeac' | bgdg Gdgb | c'aea  gedc  | B>g  e/d/c/B/  cAA ||
(a/b/) | c'aea Aeac' | bgdg Gdgb | c'ab^g ae=gd | Bg  (e/d/c/B/) cAA |]

%%sep 2 1 500
%%sep 1 1 500

